X:0
T:Dalkeith Fair
G:reel
S:NLS Glen.127
M:C
L:1/8
Q:1/2=108
K:G
g2dB g2dB|A>GAB A/A/A A2|g2dB g2dB|A>GAB G/G/G G2:|
GBdB gBdB|GBdB  A/A/A A2|GBdB gBdB|A>GAB G/G/G G2:|
g2bg afge|dBgB  A/A/A A2|g2bg afge|dBcA  G/G/G G2:|
GBdB gbgd|GBdB  A/A/A A2|GBdB gbgB|dBcA  G/G/G G2:|

The range is too wide for the pipes and the scale doesn't fit either.  It
takes more than that to stop a determined piper from playing a tune; here
it is in a pipe arrangement with the offending high B dropped a fourth and
the C simply left out, even though that changes the implicit harmony:

